!!!!SEGMENT: pl-kk--kk-i-3--007-008_anonim--officium-secundum-sanctus.krn
!!!cenid: 15xx:596
!!!COM: Anonim
!!!COM-rismid: pe30004985
!!!CDT:
!!!CNT:
!!!OPR: Officium Secundum
!!!OTL: Sanctus
!!!OMV: 008
!!!PDT:
!!!AGN:
!!!SMS-siglum: PL-Kk
!!!SMS-shelfmark: Kk.I.3
!!!SMS-shelfwork: 007-008 M
!!!SMS-variant:
!!!SMS-altvar:
!!!NIFC-rismid: 1001145493
!!!URL-scan: http://repozytorium.nifc.pl/skany/pl-kk-nut--i-3
!!!ONB-nifc: UWAGA: Discantus (s. 37r-38r, skan 0039-0040), Tenor (s. 27v-28r, skan 0200), Bassus (s. 35r-v, skan 0338-0339). Następna część: Agnus Dei
!!!key: F
!!!finalis: f
**kern	**text	**kern	**text	**kern	**text
*part3	*part3	*part2	*part2	*part1	*part1
*staff3	*staff3	*staff2	*staff2	*staff1	*staff1
*ICvox	*	*ICvox	*	*ICvox	*
*Ibass	*	*Itenor	*	*Isoprn	*
*I"[Bassus]	*	*I"[Tenor]	*	*I"[Discantus]	*
*I'B	*	*I'T	*	*I'S	*
*clefF3	*	*clefC4	*	*clefC3	*
*k[b-]	*	*k[b-]	*	*k[b-]	*
*F:	*	*F:	*	*F:	*
*M2/1	*	*M2/1	*	*M2/1	*
*met(C|)	*	*met(C|)	*	*met(C|)	*
*2\right	*	*2\right	*	*2\right	*
*lig	*	*	*	*	*
=1-	=1-	=1-	=1-	=1-	=1-
*	*	*	*	*	*
!	!	!LO:TX:t=Sanctvs Sdi Officij:color=red	!	!	!
1C	San-	1c	SAn-	0g	San-
*	*	*lig	*	*	*
1G	.	1d	.	.	.
*Xlig	*	*	*	*	*
=2-	=2-	=2-	=2-	=2-	=2-
*lig	*	*	*	*	*
1C	.	1c	.	1e	.
1F	.	1A	.	0f	.
*Xlig	*	*	*	*	*
=3-	=3-	=3-	=3-	=3-	=3-
*lig	*	*	*	*	*
1D	.	1F	.	.	.
*	*	*Xlig	*	*	*
1C	.	1G	.	1e	.
=4-	=4-	=4-	=4-	=4-	=4-
*Xlig	*	*lig	*	*	*
1AA	.	1A	-ctus	2e\	.
.	.	.	.	2c/	.
!LO:SIC:v:s=1BBn:t=?	!	!	!	!	!
1BB-	.	1G	.	1d	.
=5-	=5-	=5-	=5-	=5-	=5-
1C	.	1E	.	1c	.
*	*	*Xlig	*	*	*
!LO:N:vis=1	!	!LO:TX:t=P:problem=podwójna kreska pseudotaktowa	!	!	!
0F;	-ctus	0F	.	1c	.
=6-	=6-	=6-	=6-	=6-	=6-
.	.	.	.	1c;;	-ctus
*lig	*	*lig	*	*	*
1BB-	San-	1B-	San-	1d	San-
=7-	=7-	=7-	=7-	=7-	=7-
1F	.	1A	.	2c/	.
.	.	.	.	2d/	.
*Xlig	*	*Xlig	*	*	*
!LO:SIC:v:t=custos D	!	!	!	!LO:SIC:v:t=custos g	!
1E	.	1G	.	2e/	.
!	!	!	!	!LO:PB:g=original	!
.	.	.	.	1g\	.
=8-	=8-	=8-	=8-	=8-	=8-
!LO:LB:g=original	!	!	!	!	!
2D/	.	1A	-ctus	.	.
2F/	.	.	.	1f	.
*	*	*lig	*	*	*
1C	.	1G	.	.	.
.	.	.	.	2e\	.
=9-	=9-	=9-	=9-	=9-	=9-
!LO:N:vis=1	!	!LO:TX:t=P:problem=podwójna kreska pseudotaktowa	!	!	!
0F;	-ctus	0F	.	1f	.
.	.	.	.	1f;;	-ctus
*	*	*Xlig	*	*	*
=10-	=10-	=10-	=10-	=10-	=10-
0F	San-	1F	San-	0f	San-
.	.	1A	.	.	.
=11-	=11-	=11-	=11-	=11-	=11-
1A	.	1c	.	2e\	.
.	.	.	.	2f\	.
1G	.	1d	.	0g	.
=12-	=12-	=12-	=12-	=12-	=12-
*	*	*lig	*	*	*
2C/	.	1e	.	.	.
2c\	.	.	.	.	.
2G/	.	1d	.	2g\	.
2F/	.	.	.	2a\	.
=13-	=13-	=13-	=13-	=13-	=13-
!	!	!LO:SIC:v:t=custos c	!	!	!
1G	.	1B-	.	1g	.
*	*	*Xlig	*	*	*
!	!	!LO:LB:g=original	!	!	!
1C	.	1c	-ctus	1e	-ctus
=14-	=14-	=14-	=14-	=14-	=14-
!LO:SIC:v:t=custos BB-	!	!	!	!	!
1D	-ctus	1f	do-	1d	do-
!LO:LB:g=original	!	!	!	!LO:SIC:v:t=custos d	!
1BB-	do-	1d	-(mi)-	1f	-mi-
=15-	=15-	=15-	=15-	=15-	=15-
!	!	!	!	!LO:LB:g=original	!
1D	-mi-	1f	-n(u)s	1d	-nus
2C/	-nus	1e	.	1g	de-
1c\	de-	.	.	.	.
=16-	=16-	=16-	=16-	=16-	=16-
*	*	*lig	*	*	*
.	.	1f	de-	2f\	.
!LO:SIC:v:s=2Bn\	!	!	!	!	!
2B-\	.	.	.	2d/	.
2c\	.	1e	.	0g	.
2C/	.	.	.	.	.
=17-	=17-	=17-	=17-	=17-	=17-
1G	.	1d	.	.	.
*lig	*	*	*	*	*
1A	.	1c	.	1f	.
*	*	*Xlig	*	*	*
=18-	=18-	=18-	=18-	=18-	=18-
*	*	*	*	*lig	*
1G	.	1d	-vs	1g	-us
*Xlig	*	*	*	*	*
1C	.	1c	.	1e	.
*	*	*	*	*Xlig	*
=19-	=19-	=19-	=19-	=19-	=19-
*	*	*lig	*	*	*
1F	-us	1A	ſab-	1c	Sab-
*lig	*	*	*	*lig	*
!	!	!LO:SIC:v:s=1A	!	!	!
1D	sa-	1G	.	1f	.
*	*	*Xlig	*	*	*
=20-	=20-	=20-	=20-	=20-	=20-
1BB-	.	1B-	-ba-	1d	.
*Xlig	*	*	*	*Xlig	*
*lig	*	*	*	*	*
1F	-Ba-	1A	.	2c/	.
.	.	.	.	2f\	.
=21-	=21-	=21-	=21-	=21-	=21-
1E	.	1G	.	1g	.
*Xlig	*	*lig	*	*	*
1F	.	1A	-oth	2c/	.
.	.	.	.	1f\	.
=22-	=22-	=22-	=22-	=22-	=22-
1C	.	1G	.	.	.
.	.	.	.	2e/	-ba-
*	*	*Xlig	*	*	*
!LO:SIC:v:t=custos F	!	!LO:TX:t=P:problem=podwójna kreska pseudotaktowa	!	!LO:SIC:v:t=custos f	!
1F;	-oth	1F	.	1f;;	-oth
=23-	=23-	=23-	=23-	=23-	=23-
!LO:PB:g=original	!	!	!	!LO:LB:g=original	!
1F	Ple-	1A	Ple-	1f	ple-
1C	-ni	1G	-ni	1e	-ni
=24-	=24-	=24-	=24-	=24-	=24-
1D	su(n)t	1F	ſunt	2d/	su(n)t
.	.	.	.	1f	ce-
1C	ce-	1G	.	.	.
.	.	.	.	2e\	-li
=25-	=25-	=25-	=25-	=25-	=25-
1c	.	1A	ce-	0f	.
1c	-li	1A	-li	.	.
=26-	=26-	=26-	=26-	=26-	=26-
!	!	!LO:SIC:v:t=custos d	!	!	!
1A	et	1c	et	1e	et
*lig	*	*	*	*	*
!	!	!LO:LB:g=original	!	!	!
1G	ter-	1d	ter-	0g	ter-
=27-	=27-	=27-	=27-	=27-	=27-
*	*	*lig	*	*	*
!	!	!	!	!	!
1C	.	1e	-ra	.	.
*Xlig	*	*	*	*	*
0G	.	1d	.	0g	.
=28-	=28-	=28-	=28-	=28-	=28-
.	.	1B-	.	.	.
*	*	*Xlig	*	*	*
1C	-ra	1c	glo-	1e	-ra
=29-	=29-	=29-	=29-	=29-	=29-
1D	glo-	1f	-ri-	1f	glo-
*lig	*	*	*	*	*
1D	-ri-	1f	-a	1d	-ri
=30-	=30-	=30-	=30-	=30-	=30-
1C	.	1c	.	1g	.
*Xlig	*	*	*	*	*
1C	-a	1c	.	1e	.
=31-	=31-	=31-	=31-	=31-	=31-
1D	.	1A	.	1f	.
!LO:SIC:v:t=custos F	!	!	!	!	!
2D/	tu-	1F	.	2d/	.
!LO:LB:g=original	!	!	!	!	!
1F\	.	.	.	2c/	.
=32-	=32-	=32-	=32-	=32-	=32-
!	!	!	!	!LO:SIC:v:t=custos e	!
.	.	1B-	tu-	2d/	tu-
!	!	!	!	!LO:LB:g=original	!
2E/	.	.	.	2e/	.
1F	.	1A	.	2c/	.
.	.	.	.	2f\	.
=33-	=33-	=33-	=33-	=33-	=33-
2G/	.	1G	.	2d/	.
2E/	.	.	.	1g	.
1F	.	1A	.	.	.
.	.	.	.	1f\	.
=34-	=34-	=34-	=34-	=34-	=34-
*	*	*lig	*	*	*
1C	.	1G	-a	.	.
.	.	.	.	2e\	.
!LO:TX:t=P:problem=czerwona kreska pseudotaktowa	!	!LO:TX:t=P:problem=podwójna kreska pseudotaktowa	!	!	!
1c;<	-a	1F	.	1f;<	-a
*	*	*Xlig	*	*	*
=35-	=35-	=35-	=35-	=35-	=35-
1A	O-	1A	O-	1e	O-
*lig	*	*	*	*	*
1A	-san-	1c	-ſan-	2e/	-san-
.	.	.	.	2f\	.
=36-	=36-	=36-	=36-	=36-	=36-
1G	.	1d	-na	1g	.
*Xlig	*	*lig	*	*	*
1C	.	1e	.	1g	.
=37-	=37-	=37-	=37-	=37-	=37-
2G\	.	1d	.	2g\	.
2F/	.	.	.	2a\	.
!LO:SIC:v:t=custos A	!	!	!	!LO:SIC:v:t=custos e	!
1G	-na	1B-	.	1g	-na
*	*	*Xlig	*	*	*
=38-	=38-	=38-	=38-	=38-	=38-
!LO:LB:g=original	!	!	!	!LO:LB:g=original	!
1A	in	1c	.	1e	in
!	!	!LO:SIC:v:t=custos f	!	!	!
2F/	ex-	1f	in	2d/	ex-
2E/	.	.	.	1c\	.
=39-	=39-	=39-	=39-	=39-	=39-
*	*	*lig	*	*	*
!	!	!LO:LB:g=original	!	!	!
1D	.	1f	ex-	.	.
.	.	.	.	2B-/	.
1C	.	1c	.	1c	.
=40-	=40-	=40-	=40-	=40-	=40-
1F	.	1A	.	1A	.
*lig	*	*	*	*	*
1D	-el-	1F	.	1d	.
*	*	*Xlig	*	*	*
=41-	=41-	=41-	=41-	=41-	=41-
1BB-	.	1B-	-cel-	2d/	.
.	.	.	.	1f	.
*Xlig	*	*	*	*	*
*lig	*	*	*	*	*
1F	.	1A	.	.	.
.	.	.	.	2f\	.
=42-	=42-	=42-	=42-	=42-	=42-
1E	.	1G	.	1g	.
*Xlig	*	*	*	*	*
*lig	*	*	*	*	*
1F	.	1A	.	2c/	.
.	.	.	.	1f\	.
=43-	=43-	=43-	=43-	=43-	=43-
*	*	*lig	*	*	*
1C	.	1G	-ſis	.	.
.	.	.	.	2e\	-(c)el-
*Xlig	*	*	*	*	*
!LO:TX:t=P:problem=czerwona kreska pseudotaktowa	!	!LO:TX:t=P:problem=podwójna kreska pseudotaktowa	!	!LO:SIC:v:t=custos c	!
1F;	-sis	1F	.	1f;;	-sis
*	*	*Xlig	*	*	*
=44-	=44-	=44-	=44-	=44-	=44-
!	!	!	!	!LO:PB:g=original	!
1F	Be-	1f	Be-	1c	Be-
*lig	*	*	*	*	*
1F	-ne-	1f	-ne-	0c	-ne-
=45-	=45-	=45-	=45-	=45-	=45-
1C	.	1e	.	.	.
*Xlig	*	*	*	*	*
!LO:SIC:v:t=custos F	!	!	!	!	!
1G	.	1d	.	1B-	.
=46-	=46-	=46-	=46-	=46-	=46-
!LO:LB:g=original	!	!	!	!	!
1F	-di-	1f	.	1c	.
*lig	*	*	*	*	*
1c	-ctus	1c	-di-	1e	-di-
=47-	=47-	=47-	=47-	=47-	=47-
1A	.	1c	-ctus	2e/	-ctus
.	.	.	.	2f\	.
*Xlig	*	*	*	*	*
1G	.	1d	.	1g	.
=48-	=48-	=48-	=48-	=48-	=48-
*lig	*	*	*	*lig	*
1G	.	1e	.	1g	.
1F	.	1f	Ma-	1c	.
*Xlig	*	*	*	*Xlig	*
=49-	=49-	=49-	=49-	=49-	=49-
1D	Ma-	1f	-ri-	1d	Ma-
*lig	*	*	*	*	*
1D	-ri-	1f	.	1d	-ri-
=50-	=50-	=50-	=50-	=50-	=50-
!	!	!LO:SIC:v:t=custos A	!	!	!
1C	.	1c	.	0e	-e
*Xlig	*	*lig	*	*	*
!	!	!LO:PB:g=original	!	!	!
1C	-e	1A	-e	.	.
=51-	=51-	=51-	=51-	=51-	=51-
1F	.	1F	.	1f	.
*	*	*Xlig	*	*	*
1A	fi-	1D	fi-	2c/	fi-
.	.	.	.	1f\	-li-
=52-	=52-	=52-	=52-	=52-	=52-
1G	-li-	1E	-li-	.	.
!	!	!	!	!LO:SIC:v:t=custos f	!
.	.	.	.	2e\	.
!	!	!	!	!LO:LB:g=original	!
1F	-us	1F	-us	1f	.
=53-	=53-	=53-	=53-	=53-	=53-
1F	qui	1A	qui	0f	-us
1D	ve-	1B-	ve-	.	.
=54-	=54-	=54-	=54-	=54-	=54-
*	*	*lig	*	*	*
1C	.	1c	-nit	1g	qui
0G	.	1B-	.	0g	ve-
=55-	=55-	=55-	=55-	=55-	=55-
.	.	1G	.	.	.
*	*	*Xlig	*	*	*
!LO:SIC:v:t=custos F	!	!	!	!	!
1A	-nit	1A	.	1e	.
=56-	=56-	=56-	=56-	=56-	=56-
!LO:LB:g=original	!	!	!	!	!
2F/	in	1d	in	2d\	.
2E/	no-	.	.	1c	.
1D	-mi-	1d	no-	.	.
.	.	.	.	2B-/	.
=57-	=57-	=57-	=57-	=57-	=57-
1C	-ne	1A	.	1c	-nit
!	!	!LO:CL:ed 	!	!	!
*	*	*clefC3	*	*	*
!	!	!LO:TX:t=P:problem=brak zmiany klucza	!	!	!
1c	do-	1A	-mi-	1e	in
=58-	=58-	=58-	=58-	=58-	=58-
1A	.	1F	-ne	1f	no-
1B-	.	1G	do-	1d	-mi-
=59-	=59-	=59-	=59-	=59-	=59-
*	*	*lig	*	*	*
2B-\	.	1B-	-mi-	2d/	-ne
1G	.	.	.	2e\	.
.	.	1A	.	1f	.
1F\	.	.	.	.	.
=60-	=60-	=60-	=60-	=60-	=60-
.	.	1G	.	1g	do-
2E/	.	.	.	.	.
*	*	*Xlig	*	*	*
!	!	!	!	!LO:SIC:v:t=custos f	!
1F	.	1A	.	2c/	.
!	!	!	!	!LO:LB:g=original	!
.	.	.	.	1f\	.
=61-	=61-	=61-	=61-	=61-	=61-
*	*	*lig	*	*	*
1C	-mi-	1G	-ni	.	.
.	.	.	.	2e\	-mi-
!LO:TX:b:i:t=Osanna vt\nsupra	!	!LO:SIC:v:t=custos c e	!	!	!
!LO:SIC:v:t=custos A	!	!	!	!	!
1F;	-nj	1F	.	1f;;	-ni
*	*	*Xlig	*	*	*
!	!	!LO:TX:b:t=Oſſanna	!	!LO:TX:b:i:t=Osanna\n -ut supra	!
==	==	==	==	==	==
*-	*-	*-	*-	*-	*-
!!!system-decoration: [(s1,s2,s3)]
!!!ENC: Anastazja Marusiak
!!!END: 2022-02-04
!!!AIN: 1 bass 1 soprn 1 tenor
!!!ENC: Krzysztof Stępień
!!!END: 2022-02-21
!!!RDF**kern: > = above
!!!RDF**kern: < = below
